Suru++-Ubuntu/animations/24/brasero-disc-20.svg

<!-- Created with Inkscape (http://www.inkscape.org/) -->
<svg width="24" height="24" version="1.0" xmlns="http://www.w3.org/2000/svg" xmlns:xlink="http://www.w3.org/1999/xlink">
 <path d="m12 1c-6.0719999 0-11 4.9280001-11 11 0 6.072 4.9280003 11 11 11 6.072 0 11-4.928 11-11 0-1.236469-0.182296-2.4139115-0.558594-3.5234375l-6.574219 2.1054685c0.162068 0.438814 0.257813 0.922514 0.257813 1.417969 0 2.277-1.848 4.125-4.125 4.125s-4.125-1.848-4.125-4.125c1e-7 -2.277 1.848-4.125 4.125-4.125zm8.121094 3.609375c0.222058 0.2445565 0.444969 0.5095947 0.644531 0.7734375-0.203541-0.2690351-0.417644-0.5244854-0.644531-0.7734375z" style="fill-rule:evenodd;fill:#ffffff;opacity:.5"/>
 <path d="m12 1v6.875c1.357829 0 2.556775 0.6623815 3.308594 1.6757813 0.241593 0.3271372 0.427398 0.6676447 0.558593 1.0312497l6.574219-2.1054685c-0.356042-1.0538236-0.894033-2.0656259-1.589844-3.0078125-2.004151-2.7100582-5.224663-4.4687499-8.851562-4.46875z" style="fill:#ffffff"/>
</svg>

<?xml version="1.0" encoding="UTF-8" standalone="no"?>
<!-- Created with Inkscape (http://www.inkscape.org/) -->

<svg
   xmlns:dc="http://purl.org/dc/elements/1.1/"
   xmlns:cc="http://creativecommons.org/ns#"
   xmlns:rdf="http://www.w3.org/1999/02/22-rdf-syntax-ns#"
   xmlns:svg="http://www.w3.org/2000/svg"
   xmlns="http://www.w3.org/2000/svg"
   xmlns:xlink="http://www.w3.org/1999/xlink"
   xmlns:sodipodi="http://sodipodi.sourceforge.net/DTD/sodipodi-0.dtd"
   xmlns:inkscape="http://www.inkscape.org/namespaces/inkscape"
   version="1.0"
   width="24"
   height="24"
   id="svg3224"
   sodipodi:docname="brasero-disc-20.svg"
   inkscape:version="0.92.2 (unknown)">
  <metadata
     id="metadata14">
    <rdf:RDF>
      <cc:Work
         rdf:about="">
        <dc:format>image/svg+xml</dc:format>
        <dc:type
           rdf:resource="http://purl.org/dc/dcmitype/StillImage" />
        <dc:title></dc:title>
      </cc:Work>
    </rdf:RDF>
  </metadata>
  <sodipodi:namedview
     pagecolor="#ffffff"
     bordercolor="#666666"
     borderopacity="1"
     objecttolerance="10"
     gridtolerance="10"
     guidetolerance="10"
     inkscape:pageopacity="0"
     inkscape:pageshadow="2"
     inkscape:window-width="1477"
     inkscape:window-height="831"
     id="namedview12"
     showgrid="false"
     inkscape:zoom="10.727273"
     inkscape:cx="2.3958409"
     inkscape:cy="11"
     inkscape:window-x="0"
     inkscape:window-y="34"
     inkscape:window-maximized="0"
     inkscape:current-layer="svg3224" />
  <defs
     id="defs3226">
    <linearGradient
       id="linearGradient3587-6-5">
      <stop
         id="stop3589-9-2"
         style="stop-color:#e6e6e6;stop-opacity:1"
         offset="0" />
      <stop
         id="stop3591-7-4"
         style="stop-color:#ffffff;stop-opacity:1"
         offset="1" />
    </linearGradient>
    <linearGradient
       x1="15.669166"
       y1="-2.6219723"
       x2="15.669166"
       y2="11.969362"
       id="linearGradient2434"
       xlink:href="#linearGradient3587-6-5"
       gradientUnits="userSpaceOnUse"
       gradientTransform="matrix(0.9302326,0,0,1.2359551,-11.575969,5.1536003)" />
    <linearGradient
       x1="35.007519"
       y1="23.178743"
       x2="35.007519"
       y2="4.9945626"
       id="linearGradient2437"
       xlink:href="#linearGradient3587-6-5"
       gradientUnits="userSpaceOnUse"
       gradientTransform="translate(-25.785715,-3.035714)" />
  </defs>
  <path
     d="M 12,1 C 5.9280001,1 0.9999997,5.9280001 1,12 1,18.072 5.9280003,23 12,23 18.072,23 23,18.072 23,12 23,10.763531 22.817704,9.5860885 22.441406,8.4765625 L 15.867187,10.582031 C 16.029255,11.020845 16.125,11.504545 16.125,12 16.125,14.277 14.277,16.125 12,16.125 9.723,16.125 7.875,14.277 7.875,12 7.8750001,9.723 9.723,7.875 12,7.875 Z m 8.121094,3.609375 c 0.222058,0.2445565 0.444969,0.5095947 0.644531,0.7734375 C 20.562084,5.1137774 20.347981,4.8583271 20.121094,4.609375 Z"
     id="path3170"
     style="display:inline;overflow:visible;visibility:visible;opacity:0.5;fill:#ffffff;fill-opacity:1;fill-rule:evenodd;stroke:none;stroke-width:1.375;stroke-linecap:butt;stroke-linejoin:miter;stroke-miterlimit:4;stroke-dasharray:none;stroke-dashoffset:0;stroke-opacity:1;marker:none;marker-start:none;marker-mid:none;marker-end:none;enable-background:accumulate"
     inkscape:connector-curvature="0" />
  <path
     d="m 12,1 v 6.875 c 1.357829,0 2.556775,0.6623815 3.308594,1.6757813 0.241593,0.3271372 0.427398,0.6676447 0.558593,1.0312497 L 22.441406,8.4765625 C 22.085364,7.4227389 21.547373,6.4109366 20.851562,5.46875 18.847411,2.7586918 15.626899,1.0000001 12,1 Z"
     id="path3288"
     style="display:inline;overflow:visible;visibility:visible;opacity:1;fill:#ffffff;fill-opacity:1;fill-rule:nonzero;stroke:none;stroke-width:1.375;stroke-linecap:butt;stroke-linejoin:miter;stroke-miterlimit:4;stroke-dasharray:none;stroke-dashoffset:0;stroke-opacity:1;marker:none;marker-start:none;marker-mid:none;marker-end:none;enable-background:accumulate"
     inkscape:connector-curvature="0" />
</svg>
